X:1
T:Smædevisen
T:Löft dit Land!
T:"Virk for Salg av norske Varer"
T:Ole Olsen, Blommenholm, April 1926
C:Johan Selmer
%%score [ 1 2 3 4 ]
L:1/8
Q:1/4=84
M:4/4
K:C
V:1 treble-8 nm="T1"
V:2 treble-8 nm="T2"
V:3 bass nm="B1"
V:4 bass nm="B2"
V:1
"^En liden patriotisk Fugasatz for Mandskor. Tekstmotiv fra Aftenposten 19/4 1926\n\n\n""^Moderato e energico"!f! !^!c3 G G3 z | %1
w: Löft dit Land!|
 !^!e3 d c2 e2 | !^!d4 z4 | (3:2:2G2 c d e G3 F | !^!E !^!c !^!B !^!A !^!G2 G z | z8 | %6
w: Löft dit Land hver|dag!|Löft dit Land og virk for|Salg av nor- ske Va- rer!||
!ff! !^!g3 g (3:2:2!^!g2 d e ^f | !^!g4 d2 z2 | z8 |!f! !^!G3 G G3 z | !^!B3 B !^!d2 z d | %11
w: Virk for Salg av nor- ske|Va- rer!||Löft dit Land!|Virk for Salg, for|
 (3:2:2!^!g2 ^f =f d !^!B2 A2 | z8 | z8 |!ff! !^!g3 g (3:2:2!^!g2 d e ^f | !^!g4 d3 z | %16
w: Salg av nor- ske Va- rer!|||Virk for Salg av nor- ske|Va- rer!|
!f! !^!e2 (3(ded) c3 z | !^!e3 g !^!g3 z | (3:2:2!^!f2 e d e f3 z | !^!f3 a !^!a3 z | %20
w: Virk hver _ _ Dag!|Virk for Salg!|Virk hver Dag for Salg!|Virk for Salg!|
!f! !^!f3 f (3:2:2!^!f2 c d e | (!^!fg) e2 d2 c2 | !^!d3 d (3:2:2!^!d2 A B c | %23
w: Virk for Salg, for Salg av|nor- * ske Va- rer!|Virk for Salg, for Salg av|
 (3(!^!ded) c2 !^!B2 A2 |!mf! !^!G3 c c3 z |!<(! !^!c3 e e3 z | !^!f3 f d3 z!<)! | %27
w: nor- * * ske Va- rer!|Löft dit Land!|Löft dit Land!|Löft dit Land!|
!f! !^!g3 g !^!e3 z | z2!ff! !^!a4 _a2 |"^rit." !^!g6 g2 | !^!g8- | g4- g z z2 |] %32
w: Löft dit Land!|Löft dit|Land, dit|Land!|_ _|
V:2
!f! !^!C3 E E3 z | !^!c3 G E2 c2 | !^!B4 z4 | z8 | !^!c3 c (3:2:2!^!c2 G A B | !^!c4 G3 z | %6
w: Löft dit Land!|Löft dit Land hver|dag!||Virk for Salg av nor- ske|Va- rer!|
!ff! !^!d !^!e !^!B !^!e !^!d3 d | !^!d2 e2 (!^!dB) G2 |!f! !^!G A c A !^!G2 z F | %9
w: Virk hver Dag for Salg av|nor- ske Va- * rer!|Virk hver Dag for Salg, for|
 (3(EC) E (3(FD) F G2 G2 | z2 (3(^CD) B G3 z | z2 (3(^FG) B !^!d3 z | B3 c (3:2:2!^!c2 G A B | %13
w: Salg _ av nor- * ske Va- rer!|Löft _ dit Land!|Löft _ dit Land!|* for Salg av nor- ske|
 !^!c4 G3 z |!ff! !^!B !^!G !^!A !^!^A !^!B3 c | !^!B3 e !^!d2 G2 |!f! !^!G2 (3(FGF) E3 z | %17
w: Va- rer!|Virk hver Dag for Salg av|nor- ske Va- rer!|Virk hver _ _ Dag!|
 !^!c3 c (3:2:2!^!d2 c B2 | (3:2:2!^!d2 A F A !^!d3 z | !^!d3 d (3:2:2!^!e2 d c2 | %20
w: Virk for Salg hver Dag!|Virk for Salg hver Dag!|Virk for Salg hver Dag!|
!f! !^!c3 c (3:2:2!^!c2 c c c | !^!c2 c2 A2 A2 | !^!A3 A (3:2:2!^!A2 A A A | !^!A2 A2 !^!G2 F2 | %24
w: Virk for Salg, for Salg av|nor- ske Va- rer!|Virk for Salg, for Salg av|nor- ske Va- rer!|
!mf! (3:2:2!^!E2 E C E G3 z |!<(! (3:2:2!^!G2 G E G c3 z | (3:2:2!^!A2 B c d B3 z!<)! | %27
w: Virk og löft dit Land!|Virk og löft dit Land!|Virk og löft dit Land!|
!f! (3:2:2!^!B2 c d e c3 z |!ff! (3:2:2!^!f2 c A c f2 f2 | !^!e6 (3(!^!fe) d | !^!e8- | %31
w: Virk og löft dit Land!|Virk og löft dit Land, dit|Land! Löft _ dit|Land!|
 e4- e z z2 |] %32
w: _ _|
V:3
 z8 | z8 |!f! !^!G,3 G, !^!G, D, E, ^F, | !^!G,4 D,3 z | !^!E, !^!F, !^!G, !^!A, !^!G,2 z F, | %5
w: ||Virk for Salg av nor- ske|Va- rer!|Virk hver Dag for Salg, for|
 (3:2:2!^!E,2 E, E, F, !^!G,2 C2 |!ff! !^!B, !^!G, !^!B, !^!G, !^!B,3 C | %7
w: Salg av nor- ske Va- rer!|Virk hver Dag for Salg av|
 !^!B,2 ^A,2 (!^!B,G,) D,2 |!f! !^!E,3 E, E,3 z | z8 | !^!G,3 G, (3:2:2!^!G,2 D, E, ^F, | %11
w: nor- ske Va- * rer!|Löft dit Land!||Virk for Salg av nor- ske|
 !^!G,4 D,3 z | !^!E, !^!F, !^!^F, !^!G, !^!C3 D | !^!E3 C G,2 E,2 | %14
w: Va- rer!|Virk hver Dag for Salg av|nor- ske Va- rer!|
!ff! !^!D, !^!D, !^!E, !^!G, !^!G,3 A, | !^!G,3 B, !^!B,2 G,2 |!f! !^!C3 G, G,3 z | %17
w: Virk hver Dag for Salg av|nor- ske Va- rer!|Virk for Salg!|
 (3:2:2!^!G,2 ^F, G, C B,3 z | !^!D3 A, A,3 z | (3:2:2!^!A,2 ^G, A, D !^!C3 z | %20
w: Virk for Salg hver Dag!|Virk for Salg!|Virk hver Dag for Salg!|
!f! !^!A,3 A, (3:2:2!^!A,2 A, A, A, | !^!A,2 G,2 (F,G,) E,2 | !^!F,3 F, (3:2:2!^!F,2 F, F, F, | %23
w: Virk for Salg, for Salg av|nor- ske Va- * rer!|Virk for Salg, for Salg av|
 !^!F,2 E,2 (3(!^!D,E,D,) C,2 |!mf! !^!E,3 G, (3:2:2G,2 F, E,2 |!<(! !^!G,3 C (3:2:2!^!B,2 A, G,2 | %26
w: nor- ske Va- * * rer!|Virk og löft dit Land!|Virk og löft dit Land!|
 !^!D3 C !^!B, !^!^A, !^!B,2!<)! |!f! !^!E3 D !^!C !^!B, !^!C2 |!ff! !^!C2 !^!A,2 !^!C2 !^!D2 | %29
w: Virk og löft dit Land!|Virk og löft dit Land!|Löft dit Land og|
 !^!E3 C (3:2:2!^!C2 G, A, B, | !^!C2 C6- | C4- C z z2 |] %32
w: virk for Salg av nor- ske|Va- rer!|_ _|
V:4
!f! !^!C,3 C, (3:2:2!^!C,2 G,, A,, B,, | !^!C,4 G,,3 z | !^!G,, B,, D, G, !^!B,2 z A, | %3
w: Virk for Salg av nor- ske|Va- rer!|Virk hver Dag for Salg, for|
 (3:2:2!^!G,2 E, D, C, !^!B,,2 G,,2 | !^!C, !^!D, !^!E, !^!F, !^!E,2 z D, | %5
w: Salg av nor- ske Va- rer!|Virk hver Dag for Salg, for|
 (3:2:2!^!C,2 G,, C, D, (!^!E,G,) C2 |!ff! !^!G, !^!E, !^!G, !^!E, !^!G,3 G, | %7
w: Salg av nor- ske Va- * rer!|Virk hver Dag for Salg av|
 !^!G,2 G,2 (!^!G,D,) B,,2 |!f! !^!C,3 C, (3:2:2!^!C,2 G,, A,, B,, | !^!C,4 G,,3 z | %10
w: nor- ske Va- * rer!|Virk for Salg av nor- ske|Va- rer!|
 (3:2:2!^!G,,2 G,, G,,2 (3:2:2!^!B,,2 B,, B,,2 | !^!B,,2 D,2 (3:2:2!^!G,2 G,, G,,2 | %12
w: Virk for Salg! Virk for Salg!|Virk hver en- da Dag!|
 !^!C, !^!D, !^!^D, !^!E, !^!E,3 G, | !^!C3 G, E,2 C,2 | %14
w: Virk hver Dag for Salg av|nor- ske Va- rer!|
!ff! !^!G,, !^!B,, !^!C, !^!^C, !^!D,3 ^D, | !^!E,3 G, !^!G,2 G,,2 | %16
w: Virk hver Dag for Salg av|nor- ske Va- rer!|
!f! !^!C,3 C, (3:2:2!^!C,2 G,, A,, B,, | !^!C,2 E,2 !^!G,2 G,,2 | %18
w: Virk for Salg, for Salg av|nor- ske Va- rer!|
 !^!D,3 D, (3:2:2!^!D,2 A,, F,, A,, | !^!D,2 F,2 !^!A,2 A,,2 |!f! !^!F,3 F, (3:2:2!^!F,2 C, D, E, | %21
w: Virk for Salg, for Salg av|nor- ske Va- rer!|Virk for Salg, for Salg av|
 !^!F,2 C,2 D,2 A,,2 | !^!D,3 D, (3:2:2!^!D,2 A,, B,, C, | !^!D,2 A,,2 !^!E,,2 F,,2 | %24
w: nor- ske Va- rer!|Virk for Salg, for Salg av|nor- ske Va- rer!|
!mf! !^!C,3 G,, (3:2:2E,2 D, C,2 |!<(! !^!E,3 C, (3:2:2!^!G,2 F, E,2 | %26
w: Virk og löft dit Land!|Virk og löft dit Land!|
 !^!D,3 A, !^!G, !^!^F, !^!G,2!<)! |!f! !^!E,3 B, !^!A, !^!^G, !^!A,2 | %28
w: Virk og löft dit Land!|Virk og löft dit Land!|
!ff! !^!A,2 !^!F,2 !^!A,2 !^!B,2 | !^!C3 C (3:2:2!^!C2 G, A, B, | !^!C2 C6- | C4- C z z2 |] %32
w: Löft dit Land og|virk for Salg av nor- ske|Va- rer!|_ _|

